X:1
T:Populem Humilem
T:Giovanni Battista Martini edit BMarble
T:Populem Humilem
T:Copyright © 2015 by CPDL.  This edition can be fully distributed, duplicated, performed, and recorded. 
T:Copyright © 2015 by CPDL.  This edition can be fully distributed, duplicated, performed, and recorded. 
T:Copyright © 2015 by CPDL.  This edition can be fully distributed, duplicated, performed, and recorded. 
T:Copyright © 2015 by CPDL.  This edition can be fully distributed, duplicated, performed, and recorded. 
T:Copyright © 2015 by CPDL.  This edition can be fully distributed, duplicated, performed, and recorded. 
T:Copyright © 2015 by CPDL.  This edition can be fully distributed, duplicated, performed, and recorded. 
T:Copyright © 2015 by CPDL.  This edition can be fully distributed, duplicated, performed, and recorded. 
C:Giovanni Battista Martini
C:edit BMarble
Z:Copyright © 2015 by CPDL.  This edition can be fully distributed, duplicated, performed, and recorded.
Z:
%%score [ 1 2 3 4 ]
L:1/8
Q:1/2=80
M:4/2
K:Eb
V:1 treble nm="Soprano" snm="S."
V:2 treble nm="Alto" snm="A."
V:3 treble-8 transpose=-12 nm="Tenor" snm="T."
V:4 bass nm="Baritone" snm="Bar."
V:1
"^Offertory, 8th S. after Pentecost: Ps 18:Humble people you save;haughty eyes you bring low.For there is no God but you, Lord." z16 | %1
w: |
 z16 | G12 G4 | (G6 =A2 B8) | c12 =B4 | =B8 z8 | z16 | z16 | z4 c4 _B4 c4- | c2 c2 B4 A2 G2 G4- | %10
w: |Po- pu-|lem _ _|hu- mi-|lem|||sal- vum fa-|* ci- es Do- * *|
 G4 F4 G8- | G8 z8 | G12 G4 | G8 A8- | A4 G4 G4 B4 | =B4 c6 c2 B4 | (c2 B2 A2 G2 F8-) | %17
w: * mi- ne,|_|po- pu-|lem hu-|* mi- lem sal-|vum fa- ci- es|Do- * * * *|
 F4 E4 D4 G4- | G2 G2 A6 A2 G4 | F12 (E2 F2) | G8 z4 G4 | B6 B2 B4 c4- | c4 d4 e8 | d4 (B6 A2 G4) | %24
w: * mi- ne, sal-|* vum fa- ci- es|Do- mi- *|ne, et|o- cu- los su-|* per- bo-|rum hu- * *|
 F4 E4 A8 | G8 z4 c4- | c4 B4 G4 A4- | (A4 G8 F4) | G16- | G8 z8 | z16 | z4 G4 B6 B2 | B4 c8 d4 | %33
w: mi- li- a-|bis, hu-|* mi- li- a-||bis,|_||et o- cu-|los su- per-|
 e8 d4 G4 | G4 F4 E8 |"^rit." D4 G4 E4 F4 | G16 || G4[Q:1/2=92] c8 B4 | A4 G8 =A4 | B16 | B8 z8 | %41
w: bo- rum hu-|mi- li- a-|bis, hu- mi- li-|a-|bis. Quo- ni-|am non est|De-|us|
 z16 | z16 | z4 e8 d4 | c4 e6 d2 c2 B2 | A2 B2 c8 =B2 =A2 | =B4 B4 (c4 _B2 A2 | G8) z4 G4- | %48
w: ||prae- ter|te Do- * * *||* mi- ne, _ _|_ quo-|
 G4 G4 A4 B4 | c4 (c8 B4) | A4 G8 F4 | (E4 D2 C2 D8) |"^rit." C8 z4 c4- | c4 c4 A8 | G12 G4 | %55
w: * ni- am non|est De- *|us, non est|De- * * *|us prae-|* ter te|Do- mi-|
 F4 G6 G2 G4 | G12 G4 | G16 |] %58
w: ne, prae- ter te|Do- mi-|ne.|
V:2
 z8 D8- | D4 D4 D8 | E12 D4 | D8 G8- | (G4 F2 E2 F4) G4 | G8 z4 G4- | G4 G4 G8 | A12 G4 | %8
w: Po-|* pu- lem|hu- mi-|lem, hu-|* * * * mi-|lem, po-|* pu- lem|hu- mi-|
 G4 G4 F4 G4- | G2 G2 F4 E8- | (E4 D2 C2 D4) E4 | D8 E8- | E4 E4 (E6 DC | B,4) (E8 D2 C2 | %14
w: lem sal- vum fa-|* ci- es Do-|* * * * mi-|ne, po-|* pu- lem _ _|_ hu- * *|
 D4) E4 (E2 F2 G2 A2 | G8) z4 G4 | E4 F6 F2 C4 | (=B,4 C8) B,4 | C16 | z16 | z4 C4 E6 E2 | %21
w: * mi- lem _ _ _|_ sal-|vum fa- ci- es|Do- * mi-|ne,||et o- cu-|
 F4 F8 G4 | A8 (G6 A2 | B4) G4 F2 F2 B4- | (B2 A2 G8 F4) | G4 C4 E6 E2 | E4 (E6 D2 C4-) | %27
w: los su- per-|bo- rum _|_ hu- mi- li- a-||bis, et o- cu-|los su- * *|
 C4 =B,4 C8 | D8 z4 C4 | E6 E2 E4 (F4 | G8) A8 | (G6 FE F8) | G4 G4 G4 G4 | G8 G8 | z16 | %35
w: * per- bo-|rum, et|o- cu- los su-|* per-|bo- * * *|rum hu- mi- li-|a- bis,||
 z4 G4 G4 F4 | (E4 D2 C2 D8) || C4 G8 G4 | E4 D4 C4 (E4 | F4) G4 F8 | G8 z8 | z8 z4 A4- | %42
w: hu- mi- li-|a- * * *|bis. Quo- ni-|am non est De-|* us, De-|us|prae-|
 A4 G4 F8 | E2 D2 C8 =B,4 | C6 D2 E2 F2 G4- | G4 F4 (E4 D2 C2 | D4) z4 z8 | z4 C8 C4 | %48
w: * ter te|Do- * * *||* mi- ne, _ _|_|quo- ni-|
 D4 E4 F4 F4- | (F4 E4) D8 | C4 B,4 A,8 | G,8 z8 | z16 | z4 C6 C2 C4 | C12 C4 | C4 C6 C2 D4 | %56
w: am non est De-|* * us,|non est De-|us||prae- ter te|Do- mi-|ne, prae- ter te|
 E12 E4 | D16 |] %58
w: Do- mi-|ne.|
V:3
 G12 G4 | (G6 =A2 B8) | c12 B4 | (B6 c2 d4) e4- | (e2 d2 c2 B2 c4) d4 | d8 z4 e4 | d4 e6 e2 d4- | %7
w: Po- pu-|lem _ _|hu- mi-|lem, _ _ hu-|* * * * * mi-|lem sal-|vum fa- ci- es|
 d4 c8 =B4 | c4 e4 d4 e4- | e2 e2 d4 (c6 B2 | A4) A4 G4 c4- | c4 =B4 c4 c4- | c4 c4 (c6 BA | %13
w: _ Do- mi-|ne, sal- vum fa-|* ci- es Do- *|* mi- ne, Do-|* mi- ne, po-|* pu- lem _ _|
 G4) (c6 B2 A2 G2 | A4) B4 B4 G4- | G4 G4 G8 | A12 A4 | G16 | z4 c4 A4 c4- | c2 c2 =B4 (c6 d2 | %20
w: _ hu- * * *|* mi- lem, po-|* pu- lem|hu- mi-|lem|sal- vum fa-|* ci- es Do- *|
 e4) (E2 F2) G4 E4- | E4 D2 C2 D4 E4 | F6 F2 C8 | z4 G4 B6 B2 | B4 c8 d4 | e8 c8 | z16 | %27
w: * mi- * ne, Do-||* mi- ne,|et o- cu-|los su- per-|bo- rum||
 z4 (e6 d2) c4- | c4 =B4 (e6 d2) | c4 G4 _B6 B2 | B4 c8 d4 | (e12 d4) | e8 z8 | z4 c4 c4 _B4 | %34
w: hu- * mi-|* li- a- *|bis, et o- cu-|los su- per-|bo- *|rum|hu- mi- li-|
 A8 G4 G4 | B4 =B4 c8- | (c4 =B2 =A2 B8) || c4 e8 d4 | c4 _B4 e8 | (d4 e8 d4) | e4 e8 d4 | %41
w: a- bis, hu-|mi- li- a-||bis. Quo- ni-|am non est|De- * *|us prae- ter|
 c4 e6 d2 c2 B2 | A2 B2 c8 =B4 | c4 G8 G4 | (A6 B2) c8 | F8 G8 | z4 (e8 d4 | e12) e4 | B8 z8 | %49
w: te Do- * * *|* * * mi-|ne, prae- ter|te _ Do-|mi- ne,|Do- *|* mi-|ne,|
 z4 G8 G4 | A4 B4 c4 c4- | (c4 =B2 =A2 B8) | c4 c8 c4 | A4 (G8 F4-) | F4 (=E2 D2) E8 | %55
w: quo- ni-|am non est De-||us, prae- ter|te Do- *|* mi- * ne,|
 z4 _e6 e2 d4- | d4 (c2 =B2 c6) c2 | =B16 |] %58
w: prae- ter te|_ Do- * * mi-|ne.|
V:4
 z16 | z16 | z8 G,8- | G,4 G,4 G,8 | A,12 G,4 | G,8 z4 C4 | B,4 C6 C2 B,4 | (A,6 G,2 F,4) G,4 | %8
w: ||Po-|* pu- lem|hu- mi-|lem sal-|vum fa- ci- es|Do- * * mi-|
 C,8 z8 | z16 | z16 | z8 z4 C,4- | C,4 C,4 (C,6 D,2 | E,8) F,8- | F,4 E,4 (E,6 F,2) | %15
w: ne,|||po-|* pu- lem, _|_ po-|* pu- lem _|
 G,4 C,4 G,,8 | z16 | z8 G,8 | E,4 F,6 F,2 E,4 | D,4 D,4 C,8- | C,4 C,8 C,4 | B,,8 z8 | z16 | z16 | %24
w: hu- mi- lem||sal-|vum fa- ci- es|Do- mi- ne,|_ Do- mi-|ne,|||
 z16 | z8 C,8 | E,6 E,2 E,4 F,4- | F,4 G,4 A,8 | G,8 C,6 =B,,2 | C,2 D,2 E,6 D,C, D,4 | %30
w: |et|o- cu- los su-|* per- bo-|rum hu- *||
 E,4 C,4 (F,8 | E,8) B,,8 | z4 C,4 C,4 =B,,4 | C,8 G,,8 | z8 z4 C,4 | B,,4 G,,4 (A,,8 | G,,16) || %37
w: mi- li- a-|* bis,|hu- mi- li-|a- bis,|hu-|mi- li- a-||
 C,4 C8 G,4 | A,4 B,4 C8 | B,16 | E,8 B,8 | A,4 G,4 A,6 G,2 | F,4 E,4 D,6 D,2 | C,8 z8 | z16 | %45
w: bis. Quo- ni-|am non est|De-|us prae-|ter te Do- *|* * * mi-|ne,||
 z8 z4 G,4- | G,4 G,4 A,4 B,4 | C8 C,8 | G,8 F,4 D,4 | C,8 G,8 | z16 | z4 G,8 G,4 | %52
w: quo-|* ni- am non|est De-|us, non est|De- us||prae- ter|
 E,4 (A,6 G,2 F,4-) | F,4 =E,4 F,8 | C,12 C,4 | F,,4 C,6 C,2 =B,,4 | C,12 C,4 | G,,16 |] %58
w: te Do- * *|* mi- ne,|Do- mi-|ne, prae- ter te|Do- mi-|ne.|

